packages/usa-icon/src/img/uswds-icons/linked_in.svg

<?xml version="1.0" encoding="UTF-8"?>
<svg width="24px" height="24px" viewBox="0 0 24 24" version="1.1" xmlns="http://www.w3.org/2000/svg" xmlns:xlink="http://www.w3.org/1999/xlink">
    <title>linked_in</title>
    <g id="linked_in" stroke="none" stroke-width="1" fill="none" fill-rule="evenodd">
        <path d="M20.5185848,2.00012369 C21.3201235,1.98969438 21.9892651,2.64014127 22,3.44186113 L22,3.44186113 L22,20.5566389 C21.9892651,21.3587165 21.321018,22.0098791 20.5185848,21.9998865 L20.5185848,21.9998865 L3.4757794,21.9998865 C2.67531422,22.0083583 2.00939303,21.3571063 2,20.5566389 L2,20.5566389 L2,3.44302408 C2.00975086,2.64300392 2.67576151,1.99246756 3.4757794,2.00150279 L3.4757794,2.00150279 L20.5185848,2.00150279 Z M15.4851724,9.26010012 C14.338507,9.21751826 13.2575032,9.81124897 12.6782663,10.8016351 L12.6782663,10.8016351 L12.6383683,10.8016351 L12.6383683,9.49743138 L9.79353223,9.49743138 L9.79353223,19.0409571 L12.7568994,19.0409571 L12.7568994,14.3198273 C12.7568994,13.0748446 12.993067,11.8691338 14.5365657,11.8691338 C15.8890032,11.8691338 16.0548948,12.9947545 16.0750629,14.02215 L16.0776713,14.2762443 L16.0776713,14.2762443 L16.077828,19.041315 L19.0412846,19.041315 L19.042537,13.8058929 C19.042537,11.2356838 18.488706,9.26010012 15.4851724,9.26010012 Z M7.9314756,9.49743138 L4.96497741,9.49743138 L4.96497741,19.041315 L7.9314756,19.041315 L7.9314756,9.49743138 Z M6.44943418,4.75348985 C5.50601601,4.75348985 4.72970434,5.52980372 4.72970434,6.47322456 C4.72970434,7.41664541 5.50601601,8.19286982 6.44943418,8.19286982 L6.44943418,8.19286982 L6.59724704,8.18649391 C7.4725795,8.11060071 8.16916402,7.36682218 8.16916402,6.47322456 L8.16916402,6.47322456 C8.16898511,5.5296248 7.39276289,4.75348985 6.44943418,4.75348985 Z" id="Combined-Shape" fill="#000000" fill-rule="nonzero"></path>
    </g>
</svg>

<svg width="24" height="24" viewBox="0 0 24 24" xmlns="http://www.w3.org/2000/svg"><path d="M20.519 2A1.47 1.47 0 0 1 22 3.442v17.115A1.47 1.47 0 0 1 20.519 22H3.476A1.467 1.467 0 0 1 2 20.557V3.443c.01-.8.676-1.45 1.476-1.441h17.043Zm-5.034 7.26a3.121 3.121 0 0 0-2.807 1.542h-.04V9.497H9.794v9.544h2.963V14.32c0-1.245.236-2.45 1.78-2.45 1.352 0 1.518 1.125 1.538 2.152l.003.254v4.765h2.963l.002-5.235c0-2.57-.554-4.546-3.558-4.546Zm-7.554.237H4.965v9.544h2.966V9.497ZM6.45 4.753c-.943 0-1.72.777-1.72 1.72 0 .944.777 1.72 1.72 1.72l.148-.007A1.73 1.73 0 0 0 8.17 6.473c0-.943-.776-1.72-1.72-1.72Z"/></svg>
